X:37
T:'Twas in the Evening of a Wint'ry day
T:Brought forawrd to next page
S:John Moore's Book 1
Z:Transcribed by David Jacobs  April 2021
%%VWML: Moore1-4493-p23-0
F:http://www.vwml.org/record/Moore1/4493/p23
M:6/8
L:1/8
K:C
A2 A> B c A d f|{f}e2 G2A2zB|.e .d/ .e .f/ .g a/ .f .g/|e2 EE E2z|
a2 d c f2 Bc|d c B A {A} G2 AB|c A d f f e G B|A2 :|]


